X:1
T:Miei pensieri
T:Miei pensieri
T:Barbara Strozzi
T:Source : Ariette a voce sola---Opera sesta---Venetia---F.Magni---1657. Editor : André Vierendeels (05/09/16).
T:Notes : Original clefs : C1, F4 Editorial accidentals above the staff
T:#
T:©
T:©
T:©
T:©
C:Barbara Strozzi
Z:©
%%score 1 2
L:1/8
Q:1/4=80
M:4/4
K:C
V:1 treble nm="Soprano" snm="S"
V:2 bass nm="MusicXML Part"
V:1
 cB A^G AEFG | A^G AB G2 E2 | ef ga fe dc | BA ^GE e2 e2 | BA Bc dc AB | cB GA BA ^FG | %6
w: Mie- i pen- * sie- * ri è|che _ bra- * ma- te?|Non- * mi _ sta- * te _|piu a- stor- * di- re|le _ bel- * lez- * ze _|ch'a- * do- * ra- * te _|
w: Mie- i ca- * pric- * ci ho-|mai- * ces- * sa- te|di _ se- * guir _ chi _|vi _ da _ pe- ne:|quel- * le _ lu- * ci _|dis- * pie- * ta- * te _|
w: Mie _ spe- * ran- * ze v'in-|gan- * * * na- te|quel _ bel _ sen _ non _|è _ per _ vo- i:|al- * tre _ la- * bra _|ven- * tu- * ra- * te _|
 AG AB cBAG | ^FG AB G3 F | E4 ed ef | gf de fe cd | ed Bc dc de | fedc Bc de | c3 B- A4 | %13
w: non _ vi _ vo- * gli- o-|no ag- gra- * di- re.|_ Le _ bel- *|lez- * ze _ ch'a- * do- *|ra- * te _ non _ vi _|vo- * gli- o no ag- gra- *|di- re. _|
w: mai _ per _ voi _ non _|sia _ se- * re- ne.|_ Quel _ le _|lu- * ci _ dis- * pie- *|ta- * te _ mai _ per _|voi _ non _ sia _ se- *|re- ne. _|
w: go- * don _ ho- * ra i|po- * mi _ suo- i.|_ Al _ tre _|la- * bra _ ven- * tu- *|ra- * te _ go- * don _|ho- * ra i po- * mi _|suo- i. _|
 cB A^G AEFG | AG AB ^G2 E2 | ef ga fe dc | BA^GE e2 e2 | Bc de c2 c2 | de fg e2 e2 | ag fe dc BA | %20
w: Mie- i pen- * sie- * ri è|che _ bra _ ma- te?|Non _ mi _ sta- * te _|pi- u a stor- di- re,|non _ mi _ sta- te,|non _ mi _ sta- te|non _ mi _ sta- * te _|
w: Mie- i ca- * pric- * ci ho-|mai _ ces- * sa- te|di _ se- * guir _ chi _|vi _ da _ pe- ne,|di _ _ _ se- guir,|di _ _ _ se- guir,|di _ se- * guir _ chi _|
w: Mie _ spe- * ran- * ze v'in-|gan- * * * na- te!|Quel _ bel _ sen _ non _|è _ per _ vo- i:|quel _ _ _ bel sen,|quel _ _ _ bel sen,|quel _ bel _ _ sen non _|
 ^GEAB cedc | B4 A4- | A8- | A8 :: AG AB cd ef | de fg e2 e2 | ag fe d2 d2 | ed cB AGAB | %28
w: pi- u a stor- di- * * *|* re.|_||Se _ go- * der _ voi _|non _ spe- * ra- te,|mie- i pen- * sie- ri,|mie- i pen- * sie- * ri è|
w: vi _ da _ pe- * * *|* ne.|_||Se'in _ a- * mor _ voi _|de- * li- * ra- te,|mie- i ca- * pric- ci,|mie- i ca- * pric- * ci ho-|
w: è _ per _ vo- * * *|* i.|_||Trop- * 'ah _ trop- * po, _|ven- * tu- * ra- te,|mie _ spe- * ran- ze,|mie _ spe- * ran- * ze, v'in-|
 cB cd egfe | d4 c4 | fe dc Bc dB | ed cB A2 A2 | dc BA ^GEFG | A^G AB cedc | B4 A4- | A8- | A8 :| %37
w: che _ bra- * ma- * * *|* te,|se- * go- * der _ voi _|non _ spe- * ra- te,|mie- i pen- * sie- * ri è|che _ bra- * ma- * * *|* te.|_||
w: mai _ ces- * sa- * * *|* te,|se'in _ a- * mor _ voi _|de- * li- * ra- te,|mi- i ca- * pric- * ci ho-|mai _ ces- * sa- * * *|* te.|_||
w: gan- * * * na- * * *|* te,|trop- * po'ah _ trop- * po, _|ven- * tu- * ra- te,|mie _ spe- * ran- * ze, v'in-|gan- * * * na- * * *|* te.|_||
V:2
"^BC" A,G,F,E, F,C,D,E, | F,E,F,D, E,3 D, | C,2 C2 DCB,A, | G,F,E,D, E,^F,G,F, |"^BC" E,4 ^F,4 | %5
 E,4 D,4 | C,3 B,, A,,B,,C,A,, | B,,2 A,,2 B,A,B,B,, |"^BC" E,F,E,D, C,2 C2 | B,4 A,4 | %10
 G,4 F,3 E, | D,E,F,D, E,2 D,2 |"^BC" E,D,E,E,, A,,4 | A,G,F,E, F,C,D,E, | F,E,F,D, E,3 D, | %15
 C,2 C2 DCB,A, |"^BC" G,F,E,D, E,^F,^G,A, | ^G,4 A,B,CD | G,4 CB,A,G, | F,E,D,C, B,,A,,G,,F,, | %20
"^BC" E,,E,C,D, E,C,D,A,, | E,D,E,E,, A,G,F,E, | D,C,B,,A,, D,E,F,D, | E,D,E,E,, A,,4 :: %24
"^BC" A,E,F,G, A,B,CD | B,CDG, CB,A,G, | F,G,A,F, G,F,E,D, | C,D,E,C, F,E,F,G, | %28
"^BC" A,G,A,B, CE,F,C, |"^#" G,F,G,G,, CB,A,G, | F,G,A,F, G,F,E,D, | C,D,E,C, F,E,D,C, | %32
"^BC" B,,A,,G,,F,, E,,E,C,B,, | A,,B,,C,D, E,C,D,A,, | E,D,E,E,, A,G,F,E, | D,C,B,,A,, D,E,F,D, | %36
 E,D,E,E,, A,,4 :| %37

